Z-Log2_to_El-Zone-like_jobsanbiju-v1.1.cube
TITLE "Generated by Resolve"
LUT_3D_SIZE 5
0 0 0
0 0 0
0 0 0
0 0 0
1 1 1
0.086305 0.356893 0.180407
0.086305 0.356893 0.180407
0.086305 0.356893 0.180407
0.086305 0.356893 0.180407
1 1 1
1 0.976501 0.694102
1 0.976501 0.694102
1 0.976501 0.694102
1 0.976501 0.694102
1 1 1
0.902007 0 0.184298
0.902007 0 0.184298
0.902007 0 0.184298
0.902007 0 0.184298
1 1 1
1 1 1
1 1 1
1 1 1
1 1 1
1 1 1
0 0 0
0 0 0
0 0 0
0 0 0
1 1 1
0.086305 0.356893 0.180407
0.086305 0.356893 0.180407
0.086305 0.356893 0.180407
0.086305 0.356893 0.180407
1 1 1
1 0.976501 0.694102
1 0.976501 0.694102
1 0.976501 0.694102
1 0.976501 0.694102
1 1 1
0.902007 0 0.184298
0.902007 0 0.184298
0.902007 0 0.184298
0.902007 0 0.184298
1 1 1
1 1 1
1 1 1
1 1 1
1 1 1
1 1 1
0 0 0
0 0 0
0 0 0
0 0 0
1 1 1
0.086305 0.356893 0.180407
0.086305 0.356893 0.180407
0.086305 0.356893 0.180407
0.086305 0.356893 0.180407
1 1 1
1 0.976501 0.694102
1 0.976501 0.694102
1 0.976501 0.694102
1 0.976501 0.694102
1 1 1
0.902007 0 0.184298
0.902007 0 0.184298
0.902007 0 0.184298
0.902007 0 0.184298
1 1 1
1 1 1
1 1 1
1 1 1
1 1 1
1 1 1
0 0 0
0 0 0
0 0 0
0 0 0
1 1 1
0.086305 0.356893 0.180407
0.086305 0.356893 0.180407
0.086305 0.356893 0.180407
0.086305 0.356893 0.180407
1 1 1
1 0.976501 0.694102
1 0.976501 0.694102
1 0.976501 0.694102
1 0.976501 0.694102
1 1 1
0.902007 0 0.184298
0.902007 0 0.184298
0.902007 0 0.184298
0.902007 0 0.184298
1 1 1
1 1 1
1 1 1
1 1 1
1 1 1
1 1 1
1 1 1
1 1 1
1 1 1
1 1 1
1 1 1
1 1 1
1 1 1
1 1 1
1 1 1
1 1 1
1 1 1
1 1 1
1 1 1
1 1 1
1 1 1
1 1 1
1 1 1
1 1 1
1 1 1
1 1 1
1 1 1
1 1 1
1 1 1
1 1 1
1 1 1
