Z-Log2_to_El-Zone-like_jobsanbiju-v1.1.cube
TITLE "Generated by Resolve"
LUT_3D_SIZE 33
0 0 0
0 0 0
0 0 0
0 0 0
0 0 0
0 0 0
0 0 0
0 0 0
0 0 0
0 0 0
0 0 0
0 0 0
0 0 0
0 0 0
0 0 0
0 0 0
0 0 0
0 0 0
0 0 0
0 0 0
0 0 0
0 0 0
0 0 0
0 0 0
0 0 0
0 0 0
0 0 0
0 0 0
0 0 0
0 0 0
0 0 0
1 1 1
1 1 1
0 0 0
0 0 0
0 0 0
0 0 0
0 0 0
0 0 0
0 0 0
0 0 0
0 0 0
0 0 0
0 0 0
0 0 0
0 0 0
0 0 0
0 0 0
0 0 0
0 0 0
0 0 0
0 0 0
0 0 0
0 0 0
0 0 0
0 0 0
0 0 0
0 0 0
0 0 0
0 0 0
0 0 0
0 0 0
0 0 0
0 0 0
1 1 1
1 1 1
0 0 0
0 0 0
0 0 0
0 0 0
0 0 0
0 0 0
0 0 0
0 0 0
0 0 0
0 0 0
0 0 0
0 0 0
0 0 0
0 0 0
0 0 0
0 0 0
0 0 0
0 0 0
0 0 0
0 0 0
0 0 0
0 0 0
0 0 0
0 0 0
0 0 0
0 0 0
0 0 0
0 0 0
0 0 0
0 0 0
0 0 0
1 1 1
1 1 1
0 0 0
0 0 0
0 0 0
0 0 0
0 0 0
0 0 0
0 0 0
0 0 0
0 0 0
0 0 0
0 0 0
0 0 0
0 0 0
0 0 0
0 0 0
0 0 0
0 0 0
0 0 0
0 0 0
0 0 0
0 0 0
0 0 0
0 0 0
0 0 0
0 0 0
0 0 0
0 0 0
0 0 0
0 0 0
0 0 0
0 0 0
1 1 1
1 1 1
0 0 0
0 0 0
0 0 0
0 0 0
0 0 0
0 0 0
0 0 0
0 0 0
0 0 0
0 0 0
0 0 0
0 0 0
0 0 0
0 0 0
0 0 0
0 0 0
0 0 0
0 0 0
0 0 0
0 0 0
0 0 0
0 0 0
0 0 0
0 0 0
0 0 0
0 0 0
0 0 0
0 0 0
0 0 0
0 0 0
0 0 0
1 1 1
1 1 1
0 0 0
0 0 0
0 0 0
0 0 0
0 0 0
0 0 0
0 0 0
0 0 0
0 0 0
0 0 0
0 0 0
0 0 0
0 0 0
0 0 0
0 0 0
0 0 0
0 0 0
0 0 0
0 0 0
0 0 0
0 0 0
0 0 0
0 0 0
0 0 0
0 0 0
0 0 0
0 0 0
0 0 0
0 0 0
0 0 0
0 0 0
1 1 1
1 1 1
0.356893 0.262699 0.6
0.356893 0.262699 0.6
0.356893 0.262699 0.6
0.356893 0.262699 0.6
0.356893 0.262699 0.6
0.356893 0.262699 0.6
0.356893 0.262699 0.6
0.356893 0.262699 0.6
0.356893 0.262699 0.6
0.356893 0.262699 0.6
0.356893 0.262699 0.6
0.356893 0.262699 0.6
0.356893 0.262699 0.6
0.356893 0.262699 0.6
0.356893 0.262699 0.6
0.356893 0.262699 0.6
0.356893 0.262699 0.6
0.356893 0.262699 0.6
0.356893 0.262699 0.6
0.356893 0.262699 0.6
0.356893 0.262699 0.6
0.356893 0.262699 0.6
0.356893 0.262699 0.6
0.356893 0.262699 0.6
0.356893 0.262699 0.6
0.356893 0.262699 0.6
0.356893 0.262699 0.6
0.356893 0.262699 0.6
0.356893 0.262699 0.6
0.356893 0.262699 0.6
0.356893 0.262699 0.6
1 1 1
1 1 1
0.00390631 0.545098 0.8392
0.00390631 0.545098 0.8392
0.00390631 0.545098 0.8392
0.00390631 0.545098 0.8392
0.00390631 0.545098 0.8392
0.00390631 0.545098 0.8392
0.00390631 0.545098 0.8392
0.00390631 0.545098 0.8392
0.00390631 0.545098 0.8392
0.00390631 0.545098 0.8392
0.00390631 0.545098 0.8392
0.00390631 0.545098 0.8392
0.00390631 0.545098 0.8392
0.00390631 0.545098 0.8392
0.00390631 0.545098 0.8392
0.00390631 0.545098 0.8392
0.00390631 0.545098 0.8392
0.00390631 0.545098 0.8392
0.00390631 0.545098 0.8392
0.00390631 0.545098 0.8392
0.00390631 0.545098 0.8392
0.00390631 0.545098 0.8392
0.00390631 0.545098 0.8392
0.00390631 0.545098 0.8392
0.00390631 0.545098 0.8392
0.00390631 0.545098 0.8392
0.00390631 0.545098 0.8392
0.00390631 0.545098 0.8392
0.00390631 0.545098 0.8392
0.00390631 0.545098 0.8392
0.00390631 0.545098 0.8392
1 1 1
1 1 1
0.086305 0.356893 0.180407
0.086305 0.356893 0.180407
0.086305 0.356893 0.180407
0.086305 0.356893 0.180407
0.086305 0.356893 0.180407
0.086305 0.356893 0.180407
0.086305 0.356893 0.180407
0.086305 0.356893 0.180407
0.086305 0.356893 0.180407
0.086305 0.356893 0.180407
0.086305 0.356893 0.180407
0.086305 0.356893 0.180407
0.086305 0.356893 0.180407
0.086305 0.356893 0.180407
0.086305 0.356893 0.180407
0.086305 0.356893 0.180407
0.086305 0.356893 0.180407
0.086305 0.356893 0.180407
0.086305 0.356893 0.180407
0.086305 0.356893 0.180407
0.086305 0.356893 0.180407
0.086305 0.356893 0.180407
0.086305 0.356893 0.180407
0.086305 0.356893 0.180407
0.086305 0.356893 0.180407
0.086305 0.356893 0.180407
0.086305 0.356893 0.180407
0.086305 0.356893 0.180407
0.086305 0.356893 0.180407
0.086305 0.356893 0.180407
0.086305 0.356893 0.180407
1 1 1
1 1 1
0.086305 0.356893 0.180407
0.086305 0.356893 0.180407
0.086305 0.356893 0.180407
0.086305 0.356893 0.180407
0.086305 0.356893 0.180407
0.086305 0.356893 0.180407
0.086305 0.356893 0.180407
0.086305 0.356893 0.180407
0.086305 0.356893 0.180407
0.086305 0.356893 0.180407
0.086305 0.356893 0.180407
0.086305 0.356893 0.180407
0.086305 0.356893 0.180407
0.086305 0.356893 0.180407
0.086305 0.356893 0.180407
0.086305 0.356893 0.180407
0.086305 0.356893 0.180407
0.086305 0.356893 0.180407
0.086305 0.356893 0.180407
0.086305 0.356893 0.180407
0.086305 0.356893 0.180407
0.086305 0.356893 0.180407
0.086305 0.356893 0.180407
0.086305 0.356893 0.180407
0.086305 0.356893 0.180407
0.086305 0.356893 0.180407
0.086305 0.356893 0.180407
0.086305 0.356893 0.180407
0.086305 0.356893 0.180407
0.086305 0.356893 0.180407
0.086305 0.356893 0.180407
1 1 1
1 1 1
0.164706 0.525505 0.231403
0.164706 0.525505 0.231403
0.164706 0.525505 0.231403
0.164706 0.525505 0.231403
0.164706 0.525505 0.231403
0.164706 0.525505 0.231403
0.164706 0.525505 0.231403
0.164706 0.525505 0.231403
0.164706 0.525505 0.231403
0.164706 0.525505 0.231403
0.164706 0.525505 0.231403
0.164706 0.525505 0.231403
0.164706 0.525505 0.231403
0.164706 0.525505 0.231403
0.164706 0.525505 0.231403
0.164706 0.525505 0.231403
0.164706 0.525505 0.231403
0.164706 0.525505 0.231403
0.164706 0.525505 0.231403
0.164706 0.525505 0.231403
0.164706 0.525505 0.231403
0.164706 0.525505 0.231403
0.164706 0.525505 0.231403
0.164706 0.525505 0.231403
0.164706 0.525505 0.231403
0.164706 0.525505 0.231403
0.164706 0.525505 0.231403
0.164706 0.525505 0.231403
0.164706 0.525505 0.231403
0.164706 0.525505 0.231403
0.164706 0.525505 0.231403
1 1 1
1 1 1
0.164706 0.525505 0.231403
0.164706 0.525505 0.231403
0.164706 0.525505 0.231403
0.164706 0.525505 0.231403
0.164706 0.525505 0.231403
0.164706 0.525505 0.231403
0.164706 0.525505 0.231403
0.164706 0.525505 0.231403
0.164706 0.525505 0.231403
0.164706 0.525505 0.231403
0.164706 0.525505 0.231403
0.164706 0.525505 0.231403
0.164706 0.525505 0.231403
0.164706 0.525505 0.231403
0.164706 0.525505 0.231403
0.164706 0.525505 0.231403
0.164706 0.525505 0.231403
0.164706 0.525505 0.231403
0.164706 0.525505 0.231403
0.164706 0.525505 0.231403
0.164706 0.525505 0.231403
0.164706 0.525505 0.231403
0.164706 0.525505 0.231403
0.164706 0.525505 0.231403
0.164706 0.525505 0.231403
0.164706 0.525505 0.231403
0.164706 0.525505 0.231403
0.164706 0.525505 0.231403
0.164706 0.525505 0.231403
0.164706 0.525505 0.231403
0.164706 0.525505 0.231403
1 1 1
1 1 1
0.5608 0.756893 0.125505
0.5608 0.756893 0.125505
0.5608 0.756893 0.125505
0.5608 0.756893 0.125505
0.5608 0.756893 0.125505
0.5608 0.756893 0.125505
0.5608 0.756893 0.125505
0.5608 0.756893 0.125505
0.5608 0.756893 0.125505
0.5608 0.756893 0.125505
0.5608 0.756893 0.125505
0.5608 0.756893 0.125505
0.5608 0.756893 0.125505
0.5608 0.756893 0.125505
0.5608 0.756893 0.125505
0.5608 0.756893 0.125505
0.5608 0.756893 0.125505
0.5608 0.756893 0.125505
0.5608 0.756893 0.125505
0.5608 0.756893 0.125505
0.5608 0.756893 0.125505
0.5608 0.756893 0.125505
0.5608 0.756893 0.125505
0.5608 0.756893 0.125505
0.5608 0.756893 0.125505
0.5608 0.756893 0.125505
0.5608 0.756893 0.125505
0.5608 0.756893 0.125505
0.5608 0.756893 0.125505
0.5608 0.756893 0.125505
0.5608 0.756893 0.125505
1 1 1
1 1 1
0.537301 0.537301 0.537301
0.537301 0.537301 0.537301
0.537301 0.537301 0.537301
0.537301 0.537301 0.537301
0.537301 0.537301 0.537301
0.537301 0.537301 0.537301
0.537301 0.537301 0.537301
0.537301 0.537301 0.537301
0.537301 0.537301 0.537301
0.537301 0.537301 0.537301
0.537301 0.537301 0.537301
0.537301 0.537301 0.537301
0.537301 0.537301 0.537301
0.537301 0.537301 0.537301
0.537301 0.537301 0.537301
0.537301 0.537301 0.537301
0.537301 0.537301 0.537301
0.537301 0.537301 0.537301
0.537301 0.537301 0.537301
0.537301 0.537301 0.537301
0.537301 0.537301 0.537301
0.537301 0.537301 0.537301
0.537301 0.537301 0.537301
0.537301 0.537301 0.537301
0.537301 0.537301 0.537301
0.537301 0.537301 0.537301
0.537301 0.537301 0.537301
0.537301 0.537301 0.537301
0.537301 0.537301 0.537301
0.537301 0.537301 0.537301
0.537301 0.537301 0.537301
1 1 1
1 1 1
0.537301 0.537301 0.537301
0.537301 0.537301 0.537301
0.537301 0.537301 0.537301
0.537301 0.537301 0.537301
0.537301 0.537301 0.537301
0.537301 0.537301 0.537301
0.537301 0.537301 0.537301
0.537301 0.537301 0.537301
0.537301 0.537301 0.537301
0.537301 0.537301 0.537301
0.537301 0.537301 0.537301
0.537301 0.537301 0.537301
0.537301 0.537301 0.537301
0.537301 0.537301 0.537301
0.537301 0.537301 0.537301
0.537301 0.537301 0.537301
0.537301 0.537301 0.537301
0.537301 0.537301 0.537301
0.537301 0.537301 0.537301
0.537301 0.537301 0.537301
0.537301 0.537301 0.537301
0.537301 0.537301 0.537301
0.537301 0.537301 0.537301
0.537301 0.537301 0.537301
0.537301 0.537301 0.537301
0.537301 0.537301 0.537301
0.537301 0.537301 0.537301
0.537301 0.537301 0.537301
0.537301 0.537301 0.537301
0.537301 0.537301 0.537301
0.537301 0.537301 0.537301
1 1 1
1 1 1
0.996094 0.945098 0.0157015
0.996094 0.945098 0.0157015
0.996094 0.945098 0.0157015
0.996094 0.945098 0.0157015
0.996094 0.945098 0.0157015
0.996094 0.945098 0.0157015
0.996094 0.945098 0.0157015
0.996094 0.945098 0.0157015
0.996094 0.945098 0.0157015
0.996094 0.945098 0.0157015
0.996094 0.945098 0.0157015
0.996094 0.945098 0.0157015
0.996094 0.945098 0.0157015
0.996094 0.945098 0.0157015
0.996094 0.945098 0.0157015
0.996094 0.945098 0.0157015
0.996094 0.945098 0.0157015
0.996094 0.945098 0.0157015
0.996094 0.945098 0.0157015
0.996094 0.945098 0.0157015
0.996094 0.945098 0.0157015
0.996094 0.945098 0.0157015
0.996094 0.945098 0.0157015
0.996094 0.945098 0.0157015
0.996094 0.945098 0.0157015
0.996094 0.945098 0.0157015
0.996094 0.945098 0.0157015
0.996094 0.945098 0.0157015
0.996094 0.945098 0.0157015
0.996094 0.945098 0.0157015
0.996094 0.945098 0.0157015
1 1 1
1 1 1
1 0.976501 0.694102
1 0.976501 0.694102
1 0.976501 0.694102
1 0.976501 0.694102
1 0.976501 0.694102
1 0.976501 0.694102
1 0.976501 0.694102
1 0.976501 0.694102
1 0.976501 0.694102
1 0.976501 0.694102
1 0.976501 0.694102
1 0.976501 0.694102
1 0.976501 0.694102
1 0.976501 0.694102
1 0.976501 0.694102
1 0.976501 0.694102
1 0.976501 0.694102
1 0.976501 0.694102
1 0.976501 0.694102
1 0.976501 0.694102
1 0.976501 0.694102
1 0.976501 0.694102
1 0.976501 0.694102
1 0.976501 0.694102
1 0.976501 0.694102
1 0.976501 0.694102
1 0.976501 0.694102
1 0.976501 0.694102
1 0.976501 0.694102
1 0.976501 0.694102
1 0.976501 0.694102
1 1 1
1 1 1
1 0.976501 0.694102
1 0.976501 0.694102
1 0.976501 0.694102
1 0.976501 0.694102
1 0.976501 0.694102
1 0.976501 0.694102
1 0.976501 0.694102
1 0.976501 0.694102
1 0.976501 0.694102
1 0.976501 0.694102
1 0.976501 0.694102
1 0.976501 0.694102
1 0.976501 0.694102
1 0.976501 0.694102
1 0.976501 0.694102
1 0.976501 0.694102
1 0.976501 0.694102
1 0.976501 0.694102
1 0.976501 0.694102
1 0.976501 0.694102
1 0.976501 0.694102
1 0.976501 0.694102
1 0.976501 0.694102
1 0.976501 0.694102
1 0.976501 0.694102
1 0.976501 0.694102
1 0.976501 0.694102
1 0.976501 0.694102
1 0.976501 0.694102
1 0.976501 0.694102
1 0.976501 0.694102
1 1 1
1 1 1
0.945098 0.513695 0.180407
0.945098 0.513695 0.180407
0.945098 0.513695 0.180407
0.945098 0.513695 0.180407
0.945098 0.513695 0.180407
0.945098 0.513695 0.180407
0.945098 0.513695 0.180407
0.945098 0.513695 0.180407
0.945098 0.513695 0.180407
0.945098 0.513695 0.180407
0.945098 0.513695 0.180407
0.945098 0.513695 0.180407
0.945098 0.513695 0.180407
0.945098 0.513695 0.180407
0.945098 0.513695 0.180407
0.945098 0.513695 0.180407
0.945098 0.513695 0.180407
0.945098 0.513695 0.180407
0.945098 0.513695 0.180407
0.945098 0.513695 0.180407
0.945098 0.513695 0.180407
0.945098 0.513695 0.180407
0.945098 0.513695 0.180407
0.945098 0.513695 0.180407
0.945098 0.513695 0.180407
0.945098 0.513695 0.180407
0.945098 0.513695 0.180407
0.945098 0.513695 0.180407
0.945098 0.513695 0.180407
0.945098 0.513695 0.180407
0.945098 0.513695 0.180407
1 1 1
1 1 1
0.945098 0.513695 0.180407
0.945098 0.513695 0.180407
0.945098 0.513695 0.180407
0.945098 0.513695 0.180407
0.945098 0.513695 0.180407
0.945098 0.513695 0.180407
0.945098 0.513695 0.180407
0.945098 0.513695 0.180407
0.945098 0.513695 0.180407
0.945098 0.513695 0.180407
0.945098 0.513695 0.180407
0.945098 0.513695 0.180407
0.945098 0.513695 0.180407
0.945098 0.513695 0.180407
0.945098 0.513695 0.180407
0.945098 0.513695 0.180407
0.945098 0.513695 0.180407
0.945098 0.513695 0.180407
0.945098 0.513695 0.180407
0.945098 0.513695 0.180407
0.945098 0.513695 0.180407
0.945098 0.513695 0.180407
0.945098 0.513695 0.180407
0.945098 0.513695 0.180407
0.945098 0.513695 0.180407
0.945098 0.513695 0.180407
0.945098 0.513695 0.180407
0.945098 0.513695 0.180407
0.945098 0.513695 0.180407
0.945098 0.513695 0.180407
0.945098 0.513695 0.180407
1 1 1
1 1 1
0.945098 0.513695 0.180407
0.945098 0.513695 0.180407
0.945098 0.513695 0.180407
0.945098 0.513695 0.180407
0.945098 0.513695 0.180407
0.945098 0.513695 0.180407
0.945098 0.513695 0.180407
0.945098 0.513695 0.180407
0.945098 0.513695 0.180407
0.945098 0.513695 0.180407
0.945098 0.513695 0.180407
0.945098 0.513695 0.180407
0.945098 0.513695 0.180407
0.945098 0.513695 0.180407
0.945098 0.513695 0.180407
0.945098 0.513695 0.180407
0.945098 0.513695 0.180407
0.945098 0.513695 0.180407
0.945098 0.513695 0.180407
0.945098 0.513695 0.180407
0.945098 0.513695 0.180407
0.945098 0.513695 0.180407
0.945098 0.513695 0.180407
0.945098 0.513695 0.180407
0.945098 0.513695 0.180407
0.945098 0.513695 0.180407
0.945098 0.513695 0.180407
0.945098 0.513695 0.180407
0.945098 0.513695 0.180407
0.945098 0.513695 0.180407
0.945098 0.513695 0.180407
1 1 1
1 1 1
0.870604 0.678401 0.313695
0.870604 0.678401 0.313695
0.870604 0.678401 0.313695
0.870604 0.678401 0.313695
0.870604 0.678401 0.313695
0.870604 0.678401 0.313695
0.870604 0.678401 0.313695
0.870604 0.678401 0.313695
0.870604 0.678401 0.313695
0.870604 0.678401 0.313695
0.870604 0.678401 0.313695
0.870604 0.678401 0.313695
0.870604 0.678401 0.313695
0.870604 0.678401 0.313695
0.870604 0.678401 0.313695
0.870604 0.678401 0.313695
0.870604 0.678401 0.313695
0.870604 0.678401 0.313695
0.870604 0.678401 0.313695
0.870604 0.678401 0.313695
0.870604 0.678401 0.313695
0.870604 0.678401 0.313695
0.870604 0.678401 0.313695
0.870604 0.678401 0.313695
0.870604 0.678401 0.313695
0.870604 0.678401 0.313695
0.870604 0.678401 0.313695
0.870604 0.678401 0.313695
0.870604 0.678401 0.313695
0.870604 0.678401 0.313695
0.870604 0.678401 0.313695
1 1 1
1 1 1
0.870604 0.678401 0.313695
0.870604 0.678401 0.313695
0.870604 0.678401 0.313695
0.870604 0.678401 0.313695
0.870604 0.678401 0.313695
0.870604 0.678401 0.313695
0.870604 0.678401 0.313695
0.870604 0.678401 0.313695
0.870604 0.678401 0.313695
0.870604 0.678401 0.313695
0.870604 0.678401 0.313695
0.870604 0.678401 0.313695
0.870604 0.678401 0.313695
0.870604 0.678401 0.313695
0.870604 0.678401 0.313695
0.870604 0.678401 0.313695
0.870604 0.678401 0.313695
0.870604 0.678401 0.313695
0.870604 0.678401 0.313695
0.870604 0.678401 0.313695
0.870604 0.678401 0.313695
0.870604 0.678401 0.313695
0.870604 0.678401 0.313695
0.870604 0.678401 0.313695
0.870604 0.678401 0.313695
0.870604 0.678401 0.313695
0.870604 0.678401 0.313695
0.870604 0.678401 0.313695
0.870604 0.678401 0.313695
0.870604 0.678401 0.313695
0.870604 0.678401 0.313695
1 1 1
1 1 1
0.870604 0.678401 0.313695
0.870604 0.678401 0.313695
0.870604 0.678401 0.313695
0.870604 0.678401 0.313695
0.870604 0.678401 0.313695
0.870604 0.678401 0.313695
0.870604 0.678401 0.313695
0.870604 0.678401 0.313695
0.870604 0.678401 0.313695
0.870604 0.678401 0.313695
0.870604 0.678401 0.313695
0.870604 0.678401 0.313695
0.870604 0.678401 0.313695
0.870604 0.678401 0.313695
0.870604 0.678401 0.313695
0.870604 0.678401 0.313695
0.870604 0.678401 0.313695
0.870604 0.678401 0.313695
0.870604 0.678401 0.313695
0.870604 0.678401 0.313695
0.870604 0.678401 0.313695
0.870604 0.678401 0.313695
0.870604 0.678401 0.313695
0.870604 0.678401 0.313695
0.870604 0.678401 0.313695
0.870604 0.678401 0.313695
0.870604 0.678401 0.313695
0.870604 0.678401 0.313695
0.870604 0.678401 0.313695
0.870604 0.678401 0.313695
0.870604 0.678401 0.313695
1 1 1
1 1 1
0.902007 0 0.184298
0.902007 0 0.184298
0.902007 0 0.184298
0.902007 0 0.184298
0.902007 0 0.184298
0.902007 0 0.184298
0.902007 0 0.184298
0.902007 0 0.184298
0.902007 0 0.184298
0.902007 0 0.184298
0.902007 0 0.184298
0.902007 0 0.184298
0.902007 0 0.184298
0.902007 0 0.184298
0.902007 0 0.184298
0.902007 0 0.184298
0.902007 0 0.184298
0.902007 0 0.184298
0.902007 0 0.184298
0.902007 0 0.184298
0.902007 0 0.184298
0.902007 0 0.184298
0.902007 0 0.184298
0.902007 0 0.184298
0.902007 0 0.184298
0.902007 0 0.184298
0.902007 0 0.184298
0.902007 0 0.184298
0.902007 0 0.184298
0.902007 0 0.184298
0.902007 0 0.184298
1 1 1
1 1 1
0.902007 0 0.184298
0.902007 0 0.184298
0.902007 0 0.184298
0.902007 0 0.184298
0.902007 0 0.184298
0.902007 0 0.184298
0.902007 0 0.184298
0.902007 0 0.184298
0.902007 0 0.184298
0.902007 0 0.184298
0.902007 0 0.184298
0.902007 0 0.184298
0.902007 0 0.184298
0.902007 0 0.184298
0.902007 0 0.184298
0.902007 0 0.184298
0.902007 0 0.184298
0.902007 0 0.184298
0.902007 0 0.184298
0.902007 0 0.184298
0.902007 0 0.184298
0.902007 0 0.184298
0.902007 0 0.184298
0.902007 0 0.184298
0.902007 0 0.184298
0.902007 0 0.184298
0.902007 0 0.184298
0.902007 0 0.184298
0.902007 0 0.184298
0.902007 0 0.184298
0.902007 0 0.184298
1 1 1
1 1 1
0.902007 0 0.184298
0.902007 0 0.184298
0.902007 0 0.184298
0.902007 0 0.184298
0.902007 0 0.184298
0.902007 0 0.184298
0.902007 0 0.184298
0.902007 0 0.184298
0.902007 0 0.184298
0.902007 0 0.184298
0.902007 0 0.184298
0.902007 0 0.184298
0.902007 0 0.184298
0.902007 0 0.184298
0.902007 0 0.184298
0.902007 0 0.184298
0.902007 0 0.184298
0.902007 0 0.184298
0.902007 0 0.184298
0.902007 0 0.184298
0.902007 0 0.184298
0.902007 0 0.184298
0.902007 0 0.184298
0.902007 0 0.184298
0.902007 0 0.184298
0.902007 0 0.184298
0.902007 0 0.184298
0.902007 0 0.184298
0.902007 0 0.184298
0.902007 0 0.184298
0.902007 0 0.184298
1 1 1
1 1 1
0.902007 0 0.184298
0.902007 0 0.184298
0.902007 0 0.184298
0.902007 0 0.184298
0.902007 0 0.184298
0.902007 0 0.184298
0.902007 0 0.184298
0.902007 0 0.184298
0.902007 0 0.184298
