Z-Log2_to_El-Zone-like_jobsanbiju-v1.1.cube
TITLE "Generated by Resolve"
LUT_3D_SIZE 9
0 0 0
0 0 0
0 0 0
0 0 0
0 0 0
0 0 0
0 0 0
0 0 0
1 1 1
0 0 0
0 0 0
0 0 0
0 0 0
0 0 0
0 0 0
0 0 0
0 0 0
1 1 1
0.086305 0.356893 0.180407
0.086305 0.356893 0.180407
0.086305 0.356893 0.180407
0.086305 0.356893 0.180407
0.086305 0.356893 0.180407
0.086305 0.356893 0.180407
0.086305 0.356893 0.180407
0.086305 0.356893 0.180407
1 1 1
0.5608 0.756893 0.125505
0.5608 0.756893 0.125505
0.5608 0.756893 0.125505
0.5608 0.756893 0.125505
0.5608 0.756893 0.125505
0.5608 0.756893 0.125505
0.5608 0.756893 0.125505
0.5608 0.756893 0.125505
1 1 1
1 0.976501 0.694102
1 0.976501 0.694102
1 0.976501 0.694102
1 0.976501 0.694102
1 0.976501 0.694102
1 0.976501 0.694102
1 0.976501 0.694102
1 0.976501 0.694102
1 1 1
0.945098 0.513695 0.180407
0.945098 0.513695 0.180407
0.945098 0.513695 0.180407
0.945098 0.513695 0.180407
0.945098 0.513695 0.180407
0.945098 0.513695 0.180407
0.945098 0.513695 0.180407
0.945098 0.513695 0.180407
1 1 1
0.902007 0 0.184298
0.902007 0 0.184298
0.902007 0 0.184298
0.902007 0 0.184298
0.902007 0 0.184298
0.902007 0 0.184298
0.902007 0 0.184298
0.902007 0 0.184298
1 1 1
0.925505 0.427497 0.352895
0.925505 0.427497 0.352895
0.925505 0.427497 0.352895
0.925505 0.427497 0.352895
0.925505 0.427497 0.352895
0.925505 0.427497 0.352895
0.925505 0.427497 0.352895
0.925505 0.427497 0.352895
1 1 1
1 1 1
1 1 1
1 1 1
1 1 1
1 1 1
1 1 1
1 1 1
1 1 1
1 1 1
0 0 0
0 0 0
0 0 0
0 0 0
0 0 0
0 0 0
0 0 0
0 0 0
1 1 1
0 0 0
0 0 0
0 0 0
0 0 0
0 0 0
0 0 0
0 0 0
0 0 0
1 1 1
0.086305 0.356893 0.180407
0.086305 0.356893 0.180407
0.086305 0.356893 0.180407
0.086305 0.356893 0.180407
0.086305 0.356893 0.180407
0.086305 0.356893 0.180407
0.086305 0.356893 0.180407
0.086305 0.356893 0.180407
1 1 1
0.5608 0.756893 0.125505
0.5608 0.756893 0.125505
0.5608 0.756893 0.125505
0.5608 0.756893 0.125505
0.5608 0.756893 0.125505
0.5608 0.756893 0.125505
0.5608 0.756893 0.125505
0.5608 0.756893 0.125505
1 1 1
1 0.976501 0.694102
1 0.976501 0.694102
1 0.976501 0.694102
1 0.976501 0.694102
1 0.976501 0.694102
1 0.976501 0.694102
1 0.976501 0.694102
1 0.976501 0.694102
1 1 1
0.945098 0.513695 0.180407
0.945098 0.513695 0.180407
0.945098 0.513695 0.180407
0.945098 0.513695 0.180407
0.945098 0.513695 0.180407
0.945098 0.513695 0.180407
0.945098 0.513695 0.180407
0.945098 0.513695 0.180407
1 1 1
0.902007 0 0.184298
0.902007 0 0.184298
0.902007 0 0.184298
0.902007 0 0.184298
0.902007 0 0.184298
0.902007 0 0.184298
0.902007 0 0.184298
0.902007 0 0.184298
1 1 1
0.925505 0.427497 0.352895
0.925505 0.427497 0.352895
0.925505 0.427497 0.352895
0.925505 0.427497 0.352895
0.925505 0.427497 0.352895
0.925505 0.427497 0.352895
0.925505 0.427497 0.352895
0.925505 0.427497 0.352895
1 1 1
1 1 1
1 1 1
1 1 1
1 1 1
1 1 1
1 1 1
1 1 1
1 1 1
1 1 1
0 0 0
0 0 0
0 0 0
0 0 0
0 0 0
0 0 0
0 0 0
0 0 0
1 1 1
0 0 0
0 0 0
0 0 0
0 0 0
0 0 0
0 0 0
0 0 0
0 0 0
1 1 1
0.086305 0.356893 0.180407
0.086305 0.356893 0.180407
0.086305 0.356893 0.180407
0.086305 0.356893 0.180407
0.086305 0.356893 0.180407
0.086305 0.356893 0.180407
0.086305 0.356893 0.180407
0.086305 0.356893 0.180407
1 1 1
0.5608 0.756893 0.125505
0.5608 0.756893 0.125505
0.5608 0.756893 0.125505
0.5608 0.756893 0.125505
0.5608 0.756893 0.125505
0.5608 0.756893 0.125505
0.5608 0.756893 0.125505
0.5608 0.756893 0.125505
1 1 1
1 0.976501 0.694102
1 0.976501 0.694102
1 0.976501 0.694102
1 0.976501 0.694102
1 0.976501 0.694102
1 0.976501 0.694102
1 0.976501 0.694102
1 0.976501 0.694102
1 1 1
0.945098 0.513695 0.180407
0.945098 0.513695 0.180407
0.945098 0.513695 0.180407
0.945098 0.513695 0.180407
0.945098 0.513695 0.180407
0.945098 0.513695 0.180407
0.945098 0.513695 0.180407
0.945098 0.513695 0.180407
1 1 1
0.902007 0 0.184298
0.902007 0 0.184298
0.902007 0 0.184298
0.902007 0 0.184298
0.902007 0 0.184298
0.902007 0 0.184298
0.902007 0 0.184298
0.902007 0 0.184298
1 1 1
0.925505 0.427497 0.352895
0.925505 0.427497 0.352895
0.925505 0.427497 0.352895
0.925505 0.427497 0.352895
0.925505 0.427497 0.352895
0.925505 0.427497 0.352895
0.925505 0.427497 0.352895
0.925505 0.427497 0.352895
1 1 1
1 1 1
1 1 1
1 1 1
1 1 1
1 1 1
1 1 1
1 1 1
1 1 1
1 1 1
0 0 0
0 0 0
0 0 0
0 0 0
0 0 0
0 0 0
0 0 0
0 0 0
1 1 1
0 0 0
0 0 0
0 0 0
0 0 0
0 0 0
0 0 0
0 0 0
0 0 0
1 1 1
0.086305 0.356893 0.180407
0.086305 0.356893 0.180407
0.086305 0.356893 0.180407
0.086305 0.356893 0.180407
0.086305 0.356893 0.180407
0.086305 0.356893 0.180407
0.086305 0.356893 0.180407
0.086305 0.356893 0.180407
1 1 1
0.5608 0.756893 0.125505
0.5608 0.756893 0.125505
0.5608 0.756893 0.125505
0.5608 0.756893 0.125505
0.5608 0.756893 0.125505
0.5608 0.756893 0.125505
0.5608 0.756893 0.125505
0.5608 0.756893 0.125505
1 1 1
1 0.976501 0.694102
1 0.976501 0.694102
1 0.976501 0.694102
1 0.976501 0.694102
1 0.976501 0.694102
1 0.976501 0.694102
1 0.976501 0.694102
1 0.976501 0.694102
1 1 1
0.945098 0.513695 0.180407
0.945098 0.513695 0.180407
0.945098 0.513695 0.180407
0.945098 0.513695 0.180407
0.945098 0.513695 0.180407
0.945098 0.513695 0.180407
0.945098 0.513695 0.180407
0.945098 0.513695 0.180407
1 1 1
0.902007 0 0.184298
0.902007 0 0.184298
0.902007 0 0.184298
0.902007 0 0.184298
0.902007 0 0.184298
0.902007 0 0.184298
0.902007 0 0.184298
0.902007 0 0.184298
1 1 1
0.925505 0.427497 0.352895
0.925505 0.427497 0.352895
0.925505 0.427497 0.352895
0.925505 0.427497 0.352895
0.925505 0.427497 0.352895
0.925505 0.427497 0.352895
0.925505 0.427497 0.352895
0.925505 0.427497 0.352895
1 1 1
1 1 1
1 1 1
1 1 1
1 1 1
1 1 1
1 1 1
1 1 1
1 1 1
1 1 1
0 0 0
0 0 0
0 0 0
0 0 0
0 0 0
0 0 0
0 0 0
0 0 0
1 1 1
0 0 0
0 0 0
0 0 0
0 0 0
0 0 0
0 0 0
0 0 0
0 0 0
1 1 1
0.086305 0.356893 0.180407
0.086305 0.356893 0.180407
0.086305 0.356893 0.180407
0.086305 0.356893 0.180407
0.086305 0.356893 0.180407
0.086305 0.356893 0.180407
0.086305 0.356893 0.180407
0.086305 0.356893 0.180407
1 1 1
0.5608 0.756893 0.125505
0.5608 0.756893 0.125505
0.5608 0.756893 0.125505
0.5608 0.756893 0.125505
0.5608 0.756893 0.125505
0.5608 0.756893 0.125505
0.5608 0.756893 0.125505
0.5608 0.756893 0.125505
1 1 1
1 0.976501 0.694102
1 0.976501 0.694102
1 0.976501 0.694102
1 0.976501 0.694102
1 0.976501 0.694102
1 0.976501 0.694102
1 0.976501 0.694102
1 0.976501 0.694102
1 1 1
0.945098 0.513695 0.180407
0.945098 0.513695 0.180407
0.945098 0.513695 0.180407
0.945098 0.513695 0.180407
0.945098 0.513695 0.180407
0.945098 0.513695 0.180407
0.945098 0.513695 0.180407
0.945098 0.513695 0.180407
1 1 1
0.902007 0 0.184298
0.902007 0 0.184298
0.902007 0 0.184298
0.902007 0 0.184298
0.902007 0 0.184298
0.902007 0 0.184298
0.902007 0 0.184298
0.902007 0 0.184298
1 1 1
0.925505 0.427497 0.352895
0.925505 0.427497 0.352895
0.925505 0.427497 0.352895
0.925505 0.427497 0.352895
0.925505 0.427497 0.352895
0.925505 0.427497 0.352895
0.925505 0.427497 0.352895
0.925505 0.427497 0.352895
1 1 1
1 1 1
1 1 1
1 1 1
1 1 1
1 1 1
1 1 1
1 1 1
1 1 1
1 1 1
0 0 0
0 0 0
0 0 0
0 0 0
0 0 0
0 0 0
0 0 0
0 0 0
1 1 1
0 0 0
0 0 0
0 0 0
0 0 0
0 0 0
0 0 0
0 0 0
0 0 0
1 1 1
0.086305 0.356893 0.180407
0.086305 0.356893 0.180407
0.086305 0.356893 0.180407
0.086305 0.356893 0.180407
0.086305 0.356893 0.180407
0.086305 0.356893 0.180407
0.086305 0.356893 0.180407
0.086305 0.356893 0.180407
1 1 1
0.5608 0.756893 0.125505
0.5608 0.756893 0.125505
0.5608 0.756893 0.125505
0.5608 0.756893 0.125505
0.5608 0.756893 0.125505
0.5608 0.756893 0.125505
0.5608 0.756893 0.125505
0.5608 0.756893 0.125505
1 1 1
1 0.976501 0.694102
1 0.976501 0.694102
1 0.976501 0.694102
1 0.976501 0.694102
1 0.976501 0.694102
1 0.976501 0.694102
1 0.976501 0.694102
1 0.976501 0.694102
1 1 1
0.945098 0.513695 0.180407
0.945098 0.513695 0.180407
0.945098 0.513695 0.180407
0.945098 0.513695 0.180407
0.945098 0.513695 0.180407
0.945098 0.513695 0.180407
0.945098 0.513695 0.180407
0.945098 0.513695 0.180407
1 1 1
0.902007 0 0.184298
0.902007 0 0.184298
0.902007 0 0.184298
0.902007 0 0.184298
0.902007 0 0.184298
0.902007 0 0.184298
0.902007 0 0.184298
0.902007 0 0.184298
1 1 1
0.925505 0.427497 0.352895
0.925505 0.427497 0.352895
0.925505 0.427497 0.352895
0.925505 0.427497 0.352895
0.925505 0.427497 0.352895
0.925505 0.427497 0.352895
0.925505 0.427497 0.352895
0.925505 0.427497 0.352895
1 1 1
1 1 1
1 1 1
1 1 1
1 1 1
1 1 1
1 1 1
1 1 1
1 1 1
1 1 1
0 0 0
0 0 0
0 0 0
0 0 0
0 0 0
0 0 0
0 0 0
0 0 0
1 1 1
0 0 0
0 0 0
0 0 0
0 0 0
0 0 0
0 0 0
0 0 0
0 0 0
1 1 1
0.086305 0.356893 0.180407
0.086305 0.356893 0.180407
0.086305 0.356893 0.180407
0.086305 0.356893 0.180407
0.086305 0.356893 0.180407
0.086305 0.356893 0.180407
0.086305 0.356893 0.180407
0.086305 0.356893 0.180407
1 1 1
0.5608 0.756893 0.125505
0.5608 0.756893 0.125505
0.5608 0.756893 0.125505
0.5608 0.756893 0.125505
0.5608 0.756893 0.125505
0.5608 0.756893 0.125505
0.5608 0.756893 0.125505
0.5608 0.756893 0.125505
1 1 1
1 0.976501 0.694102
1 0.976501 0.694102
1 0.976501 0.694102
1 0.976501 0.694102
1 0.976501 0.694102
1 0.976501 0.694102
1 0.976501 0.694102
1 0.976501 0.694102
1 1 1
0.945098 0.513695 0.180407
0.945098 0.513695 0.180407
0.945098 0.513695 0.180407
0.945098 0.513695 0.180407
0.945098 0.513695 0.180407
0.945098 0.513695 0.180407
0.945098 0.513695 0.180407
0.945098 0.513695 0.180407
1 1 1
0.902007 0 0.184298
0.902007 0 0.184298
0.902007 0 0.184298
0.902007 0 0.184298
0.902007 0 0.184298
0.902007 0 0.184298
0.902007 0 0.184298
0.902007 0 0.184298
1 1 1
0.925505 0.427497 0.352895
0.925505 0.427497 0.352895
0.925505 0.427497 0.352895
0.925505 0.427497 0.352895
0.925505 0.427497 0.352895
0.925505 0.427497 0.352895
0.925505 0.427497 0.352895
0.925505 0.427497 0.352895
1 1 1
1 1 1
1 1 1
1 1 1
1 1 1
1 1 1
1 1 1
1 1 1
1 1 1
1 1 1
0 0 0
0 0 0
0 0 0
0 0 0
0 0 0
0 0 0
0 0 0
0 0 0
1 1 1
0 0 0
0 0 0
0 0 0
0 0 0
0 0 0
0 0 0
0 0 0
0 0 0
1 1 1
0.086305 0.356893 0.180407
0.086305 0.356893 0.180407
0.086305 0.356893 0.180407
0.086305 0.356893 0.180407
0.086305 0.356893 0.180407
0.086305 0.356893 0.180407
0.086305 0.356893 0.180407
0.086305 0.356893 0.180407
1 1 1
0.5608 0.756893 0.125505
0.5608 0.756893 0.125505
0.5608 0.756893 0.125505
0.5608 0.756893 0.125505
0.5608 0.756893 0.125505
0.5608 0.756893 0.125505
0.5608 0.756893 0.125505
0.5608 0.756893 0.125505
1 1 1
1 0.976501 0.694102
1 0.976501 0.694102
1 0.976501 0.694102
1 0.976501 0.694102
1 0.976501 0.694102
1 0.976501 0.694102
1 0.976501 0.694102
1 0.976501 0.694102
1 1 1
0.945098 0.513695 0.180407
0.945098 0.513695 0.180407
0.945098 0.513695 0.180407
0.945098 0.513695 0.180407
0.945098 0.513695 0.180407
0.945098 0.513695 0.180407
0.945098 0.513695 0.180407
0.945098 0.513695 0.180407
1 1 1
0.902007 0 0.184298
0.902007 0 0.184298
0.902007 0 0.184298
0.902007 0 0.184298
0.902007 0 0.184298
0.902007 0 0.184298
0.902007 0 0.184298
0.902007 0 0.184298
1 1 1
0.925505 0.427497 0.352895
0.925505 0.427497 0.352895
0.925505 0.427497 0.352895
0.925505 0.427497 0.352895
0.925505 0.427497 0.352895
0.925505 0.427497 0.352895
0.925505 0.427497 0.352895
0.925505 0.427497 0.352895
1 1 1
1 1 1
1 1 1
1 1 1
1 1 1
1 1 1
1 1 1
1 1 1
1 1 1
1 1 1
1 1 1
1 1 1
1 1 1
1 1 1
1 1 1
1 1 1
1 1 1
1 1 1
1 1 1
1 1 1
1 1 1
1 1 1
1 1 1
1 1 1
1 1 1
1 1 1
1 1 1
1 1 1
1 1 1
1 1 1
1 1 1
1 1 1
1 1 1
1 1 1
1 1 1
1 1 1
1 1 1
1 1 1
1 1 1
1 1 1
1 1 1
1 1 1
1 1 1
1 1 1
1 1 1
1 1 1
1 1 1
1 1 1
1 1 1
1 1 1
1 1 1
1 1 1
1 1 1
1 1 1
1 1 1
1 1 1
1 1 1
1 1 1
1 1 1
1 1 1
1 1 1
1 1 1
1 1 1
1 1 1
1 1 1
1 1 1
1 1 1
1 1 1
1 1 1
1 1 1
1 1 1
1 1 1
1 1 1
1 1 1
1 1 1
1 1 1
1 1 1
1 1 1
1 1 1
1 1 1
1 1 1
1 1 1
1 1 1
1 1 1
1 1 1
1 1 1
1 1 1
1 1 1
1 1 1
1 1 1
1 1 1
